X: 12281
T: Fairy Dance, The
R: reel
M: 4/4
K: Dmajor
|:f2fd f2fd|f2fd cdeg|f2fd gfed|1 cABc d2 d2:|2 cABc defg||
|:a3f g3a|gfge a3ag|f2fd gfed|1 cABc defg:|2 cABc d3||

